logos/code.svg

<svg id="e7c3754fjifg1" xmlns="http://www.w3.org/2000/svg" xmlns:xlink="http://www.w3.org/1999/xlink" viewBox="0 0 769 769" shape-rendering="geometricPrecision" text-rendering="geometricPrecision">
    <style>
        <![CDATA[#e7c3754fjifg1{pointer-events: all} #e7c3754fjifg1:hover * {animation-play-state: running !important}#e7c3754fjifg6 {animation: e7c3754fjifg6_f_o 2000ms linear infinite normal forwards}@keyframes e7c3754fjifg6_f_o { 0% {fill-opacity: 1;animation-timing-function: step-end} 15% {fill-opacity: 0;animation-timing-function: step-end} 50% {fill-opacity: 0;animation-timing-function: step-end} 85% {fill-opacity: 1} 100% {fill-opacity: 1} }#e7c3754fjifg7 {animation: e7c3754fjifg7_f_o 2000ms linear infinite normal forwards}@keyframes e7c3754fjifg7_f_o { 0% {fill-opacity: 1;animation-timing-function: step-end} 25% {fill-opacity: 0;animation-timing-function: step-end} 50% {fill-opacity: 0;animation-timing-function: step-end} 75% {fill-opacity: 1} 100% {fill-opacity: 1} }#e7c3754fjifg8 {animation: e7c3754fjifg8_f_o 2000ms linear infinite normal forwards}@keyframes e7c3754fjifg8_f_o { 0% {fill-opacity: 1;animation-timing-function: step-end} 35% {fill-opacity: 0;animation-timing-function: step-end} 50% {fill-opacity: 0;animation-timing-function: step-end} 65% {fill-opacity: 1} 100% {fill-opacity: 1} }]]>
    </style>
    <g id="e7c3754fjifg2" transform="matrix(4 0 0 4 -808.47998047999999 -2293.24633787500034)">
        <path
            id="e7c3754fjifg3"
            d="M393.900000,669.690000C393.900000,693.750000,393.900000,717.820000,393.900000,741.880000C393.900000,752.910000,385.580000,762.990000,374.720000,765.060000C373.110000,765.370000,371.450000,765.540000,369.820000,765.540000C321.850000,765.570000,273.890000,765.560000,225.920000,765.560000C214.160000,765.560000,203.900000,756.540000,202.360000,744.840000C202.220000,743.810000,202.130000,742.760000,202.130000,741.720000C202.120000,693.630000,202.120000,645.540000,202.120000,597.460000C202.120000,586.430000,210.440000,576.340000,221.300000,574.280000C222.910000,573.970000,224.570000,573.800000,226.200000,573.800000C274.210000,573.780000,322.220000,573.780000,370.220000,573.780000C381.250000,573.780000,391.350000,582.110000,393.400000,592.960000C393.700000,594.570000,393.880000,596.230000,393.880000,597.860000C393.900000,621.810000,393.900000,645.750000,393.900000,669.690000Z"
            fill="#ffcb29"
            stroke="none"
            stroke-width="1"
        />
    </g>
    <g id="e7c3754fjifg4" transform="matrix(4 0 0 4 -808.46427917000005 -2293.22628782500033)">
        <g id="e7c3754fjifg5">
            <path
                id="e7c3754fjifg6"
                d="M390.850000,668.230000C389.760000,672.960000,386.600000,676.130000,383.010000,679.120000C371.020000,689.070000,359.130000,699.140000,347.200000,709.150000C341.060000,714.300000,333.620000,714.200000,327.870000,708.900000C322.540000,704,322.100000,694.760000,327.330000,689.690000C331.610000,685.540000,336.330000,681.830000,340.880000,677.960000C345.620000,673.930000,350.390000,669.940000,355.330000,665.790000C352.220000,663.120000,349.170000,660.500000,346.120000,657.880000C340.350000,652.920000,334.520000,648.030000,328.820000,642.990000C321.170000,636.220000,322.130000,625.100000,330.710000,620C335.760000,617,342.210000,617.690000,347.180000,621.930000C360.030000,632.920000,372.830000,643.970000,385.660000,654.980000C388.430000,657.360000,389.970000,660.420000,390.860000,663.880000C390.850000,665.330000,390.850000,666.780000,390.850000,668.230000Z"
                fill="#01507b"
                stroke="none"
                stroke-width="1"
            />
            <path
                id="e7c3754fjifg7"
                d="M321.650000,611.840000C321.010000,615.210000,320.150000,619.890000,319.240000,624.550000C315.420000,644.310000,311.590000,664.060000,307.770000,683.820000C304.720000,699.610000,301.720000,715.420000,298.600000,731.200000C297.390000,737.330000,293.700000,741.440000,287.500000,742.670000C281.880000,743.790000,277.120000,741.910000,273.610000,737.300000C270.880000,733.710000,270.370000,729.640000,271.230000,725.270000C275.810000,701.860000,280.350000,678.430000,284.890000,655.010000C287.940000,639.280000,290.820000,623.510000,294.060000,607.810000C296.330000,596.790000,308.760000,592.720000,317.130000,600.020000C319.980000,602.520000,321.760000,606.630000,321.650000,611.840000Z"
                fill="#01507b"
                stroke="none"
                stroke-width="1"
            />
            <path
                id="e7c3754fjifg8"
                d="M240.630000,665.740000C247.850000,671.800000,254.920000,677.650000,261.860000,683.630000C264.810000,686.180000,267.940000,688.700000,270.220000,691.800000C273.930000,696.840000,272.800000,704.390000,268.330000,708.710000C263.340000,713.520000,256.050000,714.480000,250.800000,710.540000C245.540000,706.590000,240.600000,702.230000,235.550000,698C227.350000,691.140000,219.200000,684.230000,211.010000,677.360000C205.560000,672.790000,203.720000,666.950000,206.300000,660.750000C207.210000,658.550000,208.820000,656.430000,210.620000,654.860000C223.270000,643.810000,236.020000,632.890000,248.790000,621.990000C256.700000,615.230000,267.700000,617.720000,271.450000,627.230000C273.470000,632.350000,272.690000,637.450000,268.740000,641.330000C263.790000,646.180000,258.370000,650.550000,253.120000,655.110000C249.430000,658.320000,245.700000,661.480000,241.980000,664.660000C241.570000,665,241.140000,665.330000,240.630000,665.740000Z"
                fill="#01507b"
                stroke="none"
                stroke-width="1"
            />
        </g>
    </g>
</svg>

<svg xmlns="http://www.w3.org/2000/svg" id="code" viewBox="0 0 769 769" width="500" height="500" shape-rendering="geometricPrecision" text-rendering="geometricPrecision" version="1.1">
  <style id="type">
    @keyframes left_bracket_f_o{0%{fill-opacity:1;animation-timing-function:step-end}15%,50%{fill-opacity:0;animation-timing-function:step-end}85%,to{fill-opacity:1}}@keyframes slash_f_o{0%{fill-opacity:1;animation-timing-function:step-end}25%,50%{fill-opacity:0;animation-timing-function:step-end}75%,to{fill-opacity:1}}@keyframes right_bracket_f_o{0%{fill-opacity:1;animation-timing-function:step-end}35%,50%{fill-opacity:0;animation-timing-function:step-end}65%,to{fill-opacity:1}}#left_bracket{animation:left_bracket_f_o 2000ms linear infinite normal forwards}#slash{animation:slash_f_o 2000ms linear infinite normal forwards}#right_bracket{animation:right_bracket_f_o 2000ms linear infinite normal forwards}
  </style>
  <g id="background" transform="matrix(4 0 0 4 -808.48 -2293.246)">
    <path id="square" d="M393.9 669.69v72.19c0 11.03-8.32 21.11-19.18 23.18-1.61.31-3.27.48-4.9.48-47.97.03-95.93.02-143.9.02-11.76 0-22.02-9.02-23.56-20.72a23.27 23.27 0 01-.23-3.12c-.01-48.09-.01-96.18-.01-144.26 0-11.03 8.32-21.12 19.18-23.18 1.61-.31 3.27-.48 4.9-.48 48.01-.02 96.02-.02 144.02-.02 11.03 0 21.13 8.33 23.18 19.18.3 1.61.48 3.27.48 4.9.02 23.95.02 47.89.02 71.83z" fill="#D52727" stroke="none" stroke-width="1"/>
  </g>
  <g id="code_top" transform="matrix(4 0 0 4 -808.464 -2293.226)">
    <g id="code_group" fill="#FFF" stroke="none" stroke-width="1">
      <path id="left_bracket" d="M390.85 668.23c-1.09 4.73-4.25 7.9-7.84 10.89-11.99 9.95-23.88 20.02-35.81 30.03-6.14 5.15-13.58 5.05-19.33-.25-5.33-4.9-5.77-14.14-.54-19.21 4.28-4.15 9-7.86 13.55-11.73 4.74-4.03 9.51-8.02 14.45-12.17l-9.21-7.91c-5.77-4.96-11.6-9.85-17.3-14.89-7.65-6.77-6.69-17.89 1.89-22.99 5.05-3 11.5-2.31 16.47 1.93 12.85 10.99 25.65 22.04 38.48 33.05 2.77 2.38 4.31 5.44 5.2 8.9-.01 1.45-.01 2.9-.01 4.35z"/>
      <path id="slash" d="M321.65 611.84c-.64 3.37-1.5 8.05-2.41 12.71-3.82 19.76-7.65 39.51-11.47 59.27-3.05 15.79-6.05 31.6-9.17 47.38-1.21 6.13-4.9 10.24-11.1 11.47-5.62 1.12-10.38-.76-13.89-5.37-2.73-3.59-3.24-7.66-2.38-12.03 4.58-23.41 9.12-46.84 13.66-70.26 3.05-15.73 5.93-31.5 9.17-47.2 2.27-11.02 14.7-15.09 23.07-7.79 2.85 2.5 4.63 6.61 4.52 11.82z"/>
      <path id="right_bracket" d="M240.63 665.74c7.22 6.06 14.29 11.91 21.23 17.89 2.95 2.55 6.08 5.07 8.36 8.17 3.71 5.04 2.58 12.59-1.89 16.91-4.99 4.81-12.28 5.77-17.53 1.83-5.26-3.95-10.2-8.31-15.25-12.54-8.2-6.86-16.35-13.77-24.54-20.64-5.45-4.57-7.29-10.41-4.71-16.61.91-2.2 2.52-4.32 4.32-5.89 12.65-11.05 25.4-21.97 38.17-32.87 7.91-6.76 18.91-4.27 22.66 5.24 2.02 5.12 1.24 10.22-2.71 14.1-4.95 4.85-10.37 9.22-15.62 13.78-3.69 3.21-7.42 6.37-11.14 9.55-.41.34-.84.67-1.35 1.08z"/>
    </g>
  </g>
</svg>
